packages/kaspersky-hexa-ui-icons/src/iconsSVGs/16/StatusInfoSolid1.svg

<svg width="16" height="16" viewBox="0 0 16 16" fill="none" xmlns="http://www.w3.org/2000/svg">
<path d="M4.89941 5.85392V9.91894C5.23307 9.86247 5.6826 9.81149 6.21871 9.81149C6.7544 9.81149 7.17522 9.89073 7.50037 10.0008V5.95129C7.31767 5.83129 6.92435 5.63687 6.21707 5.63454C5.62774 5.63261 5.16763 5.75676 4.89941 5.85392Z" fill="black"/>
<path d="M11.1016 5.85392V9.91894C10.7679 9.86247 10.3184 9.81149 9.78227 9.81149C9.24658 9.81149 8.82576 9.89073 8.50061 10.0008V5.95129C8.68331 5.83129 9.07663 5.63687 9.78391 5.63454C10.3732 5.63261 10.8333 5.75676 11.1016 5.85392Z" fill="black"/>
<path fill-rule="evenodd" clip-rule="evenodd" d="M8 15C11.866 15 15 11.866 15 8C15 4.13401 11.866 1 8 1C4.13401 1 1 4.13401 1 8C1 11.866 4.13401 15 8 15ZM7.65351 11.2256C7.74742 11.3162 7.87232 11.3655 8.00049 11.3655C8.12865 11.3655 8.25355 11.3162 8.34746 11.2256C8.36045 11.2131 8.37285 11.1998 8.38458 11.1858C8.38803 11.1822 8.39763 11.1726 8.41438 11.1586C8.4479 11.1306 8.51007 11.0851 8.60892 11.0356C8.80987 10.935 9.1776 10.8115 9.78227 10.8115C10.3034 10.8115 10.7276 10.8661 11.0181 10.9197C11.162 10.9462 11.3051 10.977 11.4453 11.0193C11.5976 11.0694 11.7648 11.0434 11.8947 10.9494C12.0246 10.8554 12.1016 10.7048 12.1016 10.5444V5.52614C12.1016 5.37313 12.0317 5.23022 11.9146 5.13627C11.9049 5.12848 11.8949 5.12103 11.8846 5.11394C11.8296 5.08343 11.7332 5.03252 11.6757 5.00711C11.5764 4.96322 11.4353 4.90699 11.2574 4.85158C10.9019 4.74088 10.396 4.63253 9.78063 4.63455C9.05971 4.63692 8.537 4.80104 8.18205 4.98201C8.12371 5.01176 8.06202 5.04454 8.00049 5.08074C7.93896 5.04454 7.87727 5.01176 7.81892 4.98201C7.46397 4.80104 6.94127 4.63692 6.22035 4.63455C5.60498 4.63253 5.09912 4.74088 4.74358 4.85158C4.56565 4.90699 4.42459 4.96322 4.32526 5.00711C4.26777 5.03252 4.1714 5.08343 4.11641 5.11394C4.10608 5.12103 4.09605 5.12848 4.08635 5.13627C3.96933 5.23022 3.89941 5.37313 3.89941 5.52614V10.5444C3.89941 10.7048 3.97635 10.8554 4.10628 10.9494C4.23615 11.0434 4.40341 11.0694 4.5557 11.0193C4.69583 10.977 4.83901 10.9462 4.98288 10.9197C5.27337 10.8661 5.69762 10.8115 6.21871 10.8115C6.82337 10.8115 7.1911 10.935 7.39206 11.0356C7.49091 11.0851 7.55308 11.1306 7.5866 11.1586C7.60335 11.1726 7.61295 11.1822 7.6164 11.1858C7.62813 11.1998 7.64052 11.2131 7.65351 11.2256Z" fill="black"/>
</svg>

<svg xmlns="http://www.w3.org/2000/svg" width="16" height="16" fill="none" viewBox="0 0 16 16"><path fill="#000" d="M4.899 5.854v4.065c.334-.056.783-.107 1.319-.107s.957.079 1.282.189v-4.05c-.183-.12-.576-.314-1.283-.317-.589-.002-1.049.122-1.318.219m6.203.001v4.065c-.334-.056-.783-.107-1.319-.107s-.956.079-1.282.189v-4.05c.183-.12.576-.314 1.283-.317.589-.002 1.049.122 1.318.219"/><path fill="#000" fill-rule="evenodd" d="M8 15c3.866 0 7-3.134 7-7s-3.134-7-7-7-7 3.134-7 7 3.134 7 7 7m-.3465-3.7744a.5.5 0 0 0 .731-.0398.4.4 0 0 1 .0299-.0272c.0335-.028.0957-.0735.1945-.123.201-.1006.5687-.2241 1.1734-.2241.5211 0 .9453.0546 1.2358.1082.1439.0265.287.0573.4272.0996a.5.5 0 0 0 .6563-.4749V5.5261a.5.5 0 0 0-.217-.4122c-.055-.0305-.1514-.0814-.2089-.1068a3.9 3.9 0 0 0-.4183-.1555c-.3555-.1107-.8614-.219-1.4768-.217-.7209.0023-1.2436.1664-1.5985.3474a3.4 3.4 0 0 0-.1816.0987 3.4 3.4 0 0 0-.1816-.0987c-.355-.181-.8776-.345-1.5986-.3475-.6153-.002-1.1212.1064-1.4767.217a3.9 3.9 0 0 0-.4183.1556c-.0575.0254-.1539.0763-.2089.1068a.5.5 0 0 0-.217.4122v5.0183a.4998.4998 0 0 0 .6563.4749c.1401-.0423.2833-.0731.4272-.0996.2905-.0536.7147-.1082 1.2358-.1082.6047 0 .9724.1235 1.1734.2241.0988.0495.161.095.1945.123a.4.4 0 0 1 .0298.0272.5.5 0 0 0 .0371.0398" clip-rule="evenodd"/></svg>
